1-js/09-classes/03-static-properties-methods/animal-rabbit-static.svg

<?xml version="1.0" encoding="UTF-8"?>
<svg width="461px" height="316px" viewBox="0 0 461 316" version="1.1" xmlns="http://www.w3.org/2000/svg" xmlns:xlink="http://www.w3.org/1999/xlink">
    <!-- Generator: sketchtool 55.2 (78181) - https://sketchapp.com -->
    <title>animal-rabbit-static.svg</title>
    <desc>Created with sketchtool.</desc>
    <g id="inheritance" stroke="none" stroke-width="1" fill="none" fill-rule="evenodd">
        <g id="animal-rabbit-static.svg">
            <rect id="Rectangle-1" stroke="#E8C48E" stroke-width="2" fill="#FFF9EB" x="246" y="23" width="207" height="48"></rect>
            <text id="constructor:-Animal" font-family="PTMono-Regular, PT Mono" font-size="14" font-weight="normal" fill="#8A704D">
                <tspan x="256" y="42">constructor: Animal</tspan>
                <tspan x="256" y="57">run: function</tspan>
            </text>
            <rect id="Rectangle-1-Copy" stroke="#E8C48E" stroke-width="2" fill="#FFF9EB" x="246" y="278" width="207" height="28"></rect>
            <text id="Animal.prototype" font-family="PTMono-Regular, PT Mono" font-size="14" font-weight="normal" fill="#8A704D">
                <tspan x="245" y="15">Animal.prototype</tspan>
            </text>
            <rect id="Rectangle-1-Copy-4" stroke="#E8C48E" stroke-width="2" fill="#FFF9EB" x="246" y="158" width="207" height="48"></rect>
            <text id="constructor:-Rabbit" font-family="PTMono-Regular, PT Mono" font-size="14" font-weight="normal" fill="#8A704D">
                <tspan x="256" y="177">constructor: Rabbit</tspan>
                <tspan x="256" y="192">hide: function</tspan>
            </text>
            <text id="Rabbit.prototype" font-family="PTMono-Regular, PT Mono" font-size="14" font-weight="normal" fill="#8A704D">
                <tspan x="245" y="150">Rabbit.prototype</tspan>
            </text>
            <rect id="Rectangle-1-Copy-2" stroke="#E8C48E" stroke-width="2" fill="#FFF9EB" x="11" y="23" width="98" height="48"></rect>
            <text id="Animal" font-family="PTMono-Regular, PT Mono" font-size="14" font-weight="normal" fill="#8A704D">
                <tspan x="10" y="15">Animal</tspan>
            </text>
            <rect id="Rectangle-1-Copy-3" stroke="#E8C48E" stroke-width="2" fill="#FFF9EB" x="11" y="158" width="98" height="48"></rect>
            <text id="Rabbit" font-family="PTMono-Regular, PT Mono" font-size="14" font-weight="normal" fill="#8A704D">
                <tspan x="10" y="150">Rabbit</tspan>
            </text>
            <text id="rabbit" font-family="PTMono-Regular, PT Mono" font-size="14" font-weight="normal" fill="#8A704D">
                <tspan x="251" y="267">rabbit</tspan>
            </text>
            <path id="Line" d="M335.5,102.5 L335.5,130.5 L333.5,130.5 L333.5,102.5 L327.5,102.5 L334.5,88.5 L341.5,102.5 L335.5,102.5 Z" fill="#EE6B47" fill-rule="nonzero"></path>
            <path id="Line-Copy" d="M211,38 L132,38 L132,36 L211,36 L211,30 L225,37 L211,44 L211,38 Z" fill="#EE6B47" fill-rule="nonzero"></path>
            <text id="[[Prototype]]" font-family="PTMono-Regular, PT Mono" font-size="14" font-weight="normal" fill="#8A704D">
                <tspan x="344" y="112">[[Prototype]]</tspan>
            </text>
            <path id="Line-Copy-4" d="M57.5,102.5 L57.5,130.5 L55.5,130.5 L55.5,102.5 L49.5,102.5 L56.5,88.5 L63.5,102.5 L57.5,102.5 Z" fill="#EE6B47" fill-rule="nonzero"></path>
            <text id="[[Prototype]]-Copy-2" font-family="PTMono-Regular, PT Mono" font-size="14" font-weight="normal" fill="#EC6B4E">
                <tspan x="66" y="112">[[Prototype]]</tspan>
            </text>
            <path id="Line-Copy-3" d="M335.5,236.5 L335.5,264.5 L333.5,264.5 L333.5,236.5 L327.5,236.5 L334.5,222.5 L341.5,236.5 L335.5,236.5 Z" fill="#EE6B47" fill-rule="nonzero"></path>
            <text id="[[Prototype]]-Copy" font-family="PTMono-Regular, PT Mono" font-size="14" font-weight="normal" fill="#8A704D">
                <tspan x="344" y="246">[[Prototype]]</tspan>
            </text>
            <text id="prototype" font-family="PTMono-Regular, PT Mono" font-size="14" font-weight="normal" fill="#8A704D">
                <tspan x="139" y="25">prototype</tspan>
            </text>
            <path id="Line-Copy-2" d="M211,180 L132,180 L132,178 L211,178 L211,172 L225,179 L211,186 L211,180 Z" fill="#EE6B47" fill-rule="nonzero"></path>
            <text id="prototype-copy" font-family="PTMono-Regular, PT Mono" font-size="14" font-weight="normal" fill="#8A704D">
                <tspan x="139" y="168">prototype</tspan>
            </text>
            <text id="compare" font-family="PTMono-Regular, PT Mono" font-size="14" font-weight="normal" fill="#8A704D">
                <tspan x="20" y="41">compare</tspan>
            </text>
            <text id="name:-&quot;White-Rabbit&quot;" font-family="PTMono-Regular, PT Mono" font-size="14" font-weight="normal" fill="#8A704D">
                <tspan x="257" y="296">name: "Белый кролик"</tspan>
            </text>
        </g>
    </g>
</svg>

<svg xmlns="http://www.w3.org/2000/svg" width="461" height="316" viewBox="0 0 461 316"><defs><style>@import url(https://fonts.googleapis.com/css?family=Open+Sans:bold,italic,bolditalic%7CPT+Mono);@font-face{font-family:&apos;PT Mono&apos;;font-weight:700;font-style:normal;src:local(&apos;PT MonoBold&apos;),url(/pack/modules/styles/blocks/font/PTMonoBold.woff2) format(&apos;woff2&apos;),url(/pack/modules/styles/blocks/font/PTMonoBold.woff) format(&apos;woff&apos;),url(/pack/modules/styles/blocks/font/PTMonoBold.ttf) format(&apos;truetype&apos;)}</style></defs><g id="inheritance" fill="none" fill-rule="evenodd" stroke="none" stroke-width="1"><g id="animal-rabbit-static.svg"><path id="Rectangle-1" fill="#FFF9EB" stroke="#E8C48E" stroke-width="2" d="M246 23h207v48H246z"/><text id="constructor:-Animal" fill="#8A704D" font-family="PTMono-Regular, PT Mono" font-size="14" font-weight="normal"><tspan x="256" y="42">constructor: Animal</tspan> <tspan x="256" y="57">run: function</tspan></text><path id="Rectangle-1-Copy" fill="#FFF9EB" stroke="#E8C48E" stroke-width="2" d="M246 278h207v28H246z"/><text id="Animal.prototype" fill="#8A704D" font-family="PTMono-Regular, PT Mono" font-size="14" font-weight="normal"><tspan x="245" y="15">Animal.prototype</tspan></text><path id="Rectangle-1-Copy-4" fill="#FFF9EB" stroke="#E8C48E" stroke-width="2" d="M246 158h207v48H246z"/><text id="constructor:-Rabbit" fill="#8A704D" font-family="PTMono-Regular, PT Mono" font-size="14" font-weight="normal"><tspan x="256" y="177">constructor: Rabbit</tspan> <tspan x="256" y="192">hide: function</tspan></text><text id="Rabbit.prototype" fill="#8A704D" font-family="PTMono-Regular, PT Mono" font-size="14" font-weight="normal"><tspan x="245" y="150">Rabbit.prototype</tspan></text><path id="Rectangle-1-Copy-2" fill="#FFF9EB" stroke="#E8C48E" stroke-width="2" d="M11 23h98v48H11z"/><text id="Animal" fill="#8A704D" font-family="PTMono-Regular, PT Mono" font-size="14" font-weight="normal"><tspan x="10" y="15">Animal</tspan></text><path id="Rectangle-1-Copy-3" fill="#FFF9EB" stroke="#E8C48E" stroke-width="2" d="M11 158h98v48H11z"/><text id="Rabbit" fill="#8A704D" font-family="PTMono-Regular, PT Mono" font-size="14" font-weight="normal"><tspan x="10" y="150">Rabbit</tspan></text><text id="rabbit" fill="#8A704D" font-family="PTMono-Regular, PT Mono" font-size="14" font-weight="normal"><tspan x="251" y="267">rabbit</tspan></text><path id="Line" fill="#EE6B47" fill-rule="nonzero" d="M335.5 102.5v28h-2v-28h-6l7-14 7 14h-6z"/><path id="Line-Copy" fill="#EE6B47" fill-rule="nonzero" d="M211 38h-79v-2h79v-6l14 7-14 7v-6z"/><text id="[[Prototype]]" fill="#8A704D" font-family="PTMono-Regular, PT Mono" font-size="14" font-weight="normal"><tspan x="344" y="112">[[Prototype]]</tspan></text><path id="Line-Copy-4" fill="#EE6B47" fill-rule="nonzero" d="M57.5 102.5v28h-2v-28h-6l7-14 7 14h-6z"/><text id="[[Prototype]]-Copy-2" fill="#EC6B4E" font-family="PTMono-Regular, PT Mono" font-size="14" font-weight="normal"><tspan x="66" y="112">[[Prototype]]</tspan></text><path id="Line-Copy-3" fill="#EE6B47" fill-rule="nonzero" d="M335.5 236.5v28h-2v-28h-6l7-14 7 14h-6z"/><text id="[[Prototype]]-Copy" fill="#8A704D" font-family="PTMono-Regular, PT Mono" font-size="14" font-weight="normal"><tspan x="344" y="246">[[Prototype]]</tspan></text><text id="prototype" fill="#8A704D" font-family="PTMono-Regular, PT Mono" font-size="14" font-weight="normal"><tspan x="139" y="25">prototype</tspan></text><path id="Line-Copy-2" fill="#EE6B47" fill-rule="nonzero" d="M211 180h-79v-2h79v-6l14 7-14 7v-6z"/><text id="prototype-copy" fill="#8A704D" font-family="PTMono-Regular, PT Mono" font-size="14" font-weight="normal"><tspan x="139" y="168">prototype</tspan></text><text id="compare" fill="#8A704D" font-family="PTMono-Regular, PT Mono" font-size="14" font-weight="normal"><tspan x="20" y="41">compare</tspan></text><text id="name:-&quot;White-Rabbit&quot;" fill="#8A704D" font-family="PTMono-Regular, PT Mono" font-size="14" font-weight="normal"><tspan x="257" y="296">name: &quot;White Rabbit&quot;</tspan></text></g></g></svg>
